2 Export/Icons/Rounded/Filter.svg

<svg xmlns="http://www.w3.org/2000/svg" xmlns:xlink="http://www.w3.org/1999/xlink" width="24" height="24" viewBox="0 0 24 24">
  <defs>
    <path id="filter-a" d="M18.6873727,5 L5.31127553,5 C5.19251579,5 5.08000656,5.06652268 5.03000246,5.17235421 C4.97999836,5.27818575 4.99249938,5.40215983 5.06750554,5.49287257 L9.66788289,11.0414687 L9.66788289,11.0414687 C10.0679157,11.5222462 10.2866837,12.1269978 10.2866837,12.7438445 L10.2866837,16.2786177 C10.2866837,16.3632829 10.3241867,16.4479482 10.3898171,16.5053996 L13.1900468,18.924406 C13.2494267,18.9758099 13.3244328,19 13.399439,19 C13.4431926,19 13.4869462,18.9909287 13.5275745,18.9727862 C13.6400837,18.924406 13.7119646,18.8155508 13.7119646,18.6976242 L13.7119646,12.7438445 C13.7119646,12.1269978 13.9307326,11.5222462 14.3307654,11.0414687 L18.9311427,5.49287257 C19.0061489,5.40215983 19.0217752,5.27818575 18.9686458,5.17235421 C18.9155164,5.06652268 18.8061325,5 18.6873727,5 Z"/>
  </defs>
  <g fill="none" fill-rule="evenodd">
    <polygon points="0 0 24 0 24 24 0 24"/>
    <mask id="filter-b" fill="#fff">
      <use xlink:href="#filter-a"/>
    </mask>
    <use fill="#000" xlink:href="#filter-a"/>
    <g fill="#000" mask="url(#filter-b)">
      <rect width="24" height="24"/>
    </g>
  </g>
</svg>

<svg xmlns="http://www.w3.org/2000/svg" xmlns:xlink="http://www.w3.org/1999/xlink" width="24" height="24" viewBox="0 0 24 24">
  <defs>
    <path id="filter-a" d="M18.687 5H5.311a.311.311 0 0 0-.281.172.3.3 0 0 0 .038.32l4.6 5.55c.4.48.619 1.085.619 1.702v3.535c0 .084.037.169.103.226l2.8 2.42a.318.318 0 0 0 .338.048.301.301 0 0 0 .184-.275v-5.954c0-.617.219-1.222.619-1.703l4.6-5.548a.293.293 0 0 0 .038-.32.315.315 0 0 0-.282-.173z"/>
  </defs>
  <g fill="none" fill-rule="evenodd">
    <polygon points="0 0 24 0 24 24 0 24"/>
    <mask id="filter-b" fill="#fff">
      <use xlink:href="#filter-a"/>
    </mask>
    <use fill="#000" xlink:href="#filter-a"/>
    <g fill="#000" mask="url(#filter-b)">
      <rect width="24" height="24"/>
    </g>
  </g>
</svg>
